assets/Backhand index pointing left/Dark/Flat/backhand_index_pointing_left_flat_dark.svg

<svg width="32" height="32" viewBox="0 0 32 32" fill="none" xmlns="http://www.w3.org/2000/svg">
<path d="M24.3125 11.4375C20.0968 9.71134 18.4375 5.87497 17.5312 4.99996C16.625 4.12496 14.9371 4.02675 13.9013 4.99996C12.5625 6.25778 13.0365 7.41273 13.9375 8.93746C14.2422 9.45309 15.2656 11.0312 15.2656 11.0312H5.03125C2.92188 11.0312 1.98999 12.56 1.98999 13.72C1.98999 14.88 3.15625 16.2656 5.03125 16.2656H8.96875C8.96875 16.2656 7.6875 16.7674 7.6875 18.5643C7.6875 20.3612 9.3125 20.875 9.3125 20.875C9.3125 20.875 8.51562 21.3906 8.51562 23.0625C8.51562 24.6406 10.1094 25.3437 10.1094 25.3437C10.1094 25.3437 9.5625 25.9843 9.5625 27.3906C9.5625 28.4687 10.9688 29.9843 12.6094 29.9843C19.6999 29.9843 29.99 29.4232 29.99 20.03C30 17.54 28.5282 13.1636 24.3125 11.4375Z" fill="#573739"/>
<path d="M8.95315 16.2655C12.0337 16.058 13.8125 15.4218 14.3125 14.9999H5.93753C3.72084 14.9999 2.47097 14.5201 2.03033 14.1021C2.25048 15.1634 3.35899 16.2656 5.03128 16.2656L8.95315 16.2655Z" fill="#341A1C"/>
<path d="M9.31241 20.8749H12.5C12.7762 20.8749 13 20.6511 13 20.3749C13 20.0988 12.7762 19.8749 12.5 19.8749H8.05054C8.52643 20.6226 9.30249 20.8718 9.31241 20.8749Z" fill="#341A1C"/>
<path d="M13.6875 25.3437H10.1093C10.1013 25.3401 9.39027 25.0238 8.92078 24.3437H13.6875C13.9637 24.3437 14.1875 24.5675 14.1875 24.8437C14.1875 25.1198 13.9637 25.3437 13.6875 25.3437Z" fill="#341A1C"/>
</svg>

<svg xmlns="http://www.w3.org/2000/svg" width="32" height="32" fill="none"><path fill="#573739" d="M24.313 11.438C20.096 9.71 18.438 5.875 17.53 5c-.906-.875-2.594-.973-3.63 0-1.338 1.258-.864 2.413.037 3.937.304.516 1.328 2.094 1.328 2.094H5.03c-2.11 0-3.041 1.529-3.041 2.689 0 1.16 1.166 2.546 3.041 2.546H8.97s-1.281.501-1.281 2.298c0 1.797 1.625 2.311 1.625 2.311s-.797.516-.797 2.188c0 1.578 1.593 2.28 1.593 2.28s-.546.641-.546 2.048c0 1.078 1.406 2.593 3.046 2.593 7.09 0 17.381-.56 17.381-9.954.01-2.49-1.462-6.866-5.677-8.593Z"/><path fill="#341A1C" d="M8.953 16.265c3.08-.207 4.86-.843 5.36-1.265H5.938c-2.217 0-3.467-.48-3.908-.898.22 1.061 1.329 2.164 3.001 2.164h3.922ZM9.312 20.875H12.5a.5.5 0 1 0 0-1H8.05a2.575 2.575 0 0 0 1.262 1ZM13.688 25.344h-3.579c-.008-.004-.719-.32-1.188-1h4.767a.5.5 0 1 1 0 1Z"/></svg>
